public/images/placeholder-artists.svg

<?xml version="1.0" encoding="UTF-8" standalone="no"?>
<svg width="25px" height="25px" viewBox="0 0 25 25" version="1.1" xmlns="http://www.w3.org/2000/svg" xmlns:xlink="http://www.w3.org/1999/xlink" xmlns:sketch="http://www.bohemiancoding.com/sketch/ns">
    <title>Slice 1</title>
    <description>Created with Sketch (http://www.bohemiancoding.com/sketch)</description>
    <defs></defs>
    <g id="Page-1" stroke="none" stroke-width="1" fill="none" fill-rule="evenodd" sketch:type="MSPage">
        <path d="M24.5404553,20.5649215 C24.2104189,19.5395812 23.6121786,18.5053194 22.7298364,17.9034346 C21.0320816,16.7366073 19.0539869,16.114178 17.1413049,15.4478325 C16.6798971,15.2804607 16.2110864,15.0980105 15.7894238,14.8384084 C15.4129675,14.6068272 15.2716447,14.1318534 15.1842053,13.7146806 C15.1456131,13.4940314 15.1219481,13.2676021 15.1096908,13.0448796 C16.4966447,11.0804607 17.4166689,7.87451309 17.4166689,5.24575916 C17.4166689,1.14326702 15.177834,0 12.4165476,0 C9.65471505,0 7.41636553,1.14157068 7.41636553,5.24406283 C7.41636553,7.96686911 8.40271262,11.3068901 9.87322233,13.2471832 C9.85981213,13.400356 9.84221505,13.5535288 9.8155767,13.7060105 C9.72795534,14.1231204 9.58681456,14.5892356 9.21060097,14.8207539 C8.78845291,15.0804188 8.31970291,15.2452147 7.85823446,15.4125864 C5.94555243,16.0788691 3.96751844,16.6664293 2.27018835,17.8332565 C1.38736068,18.4351414 0.789423785,19.5395812 0.459630095,20.5649215 C0.120006309,21.629089 -0.018889322,22.9471414 0.00204514398,24.0152042 L12.4994966,24.0152042 L24.9979189,24.0152042 C25.0190354,22.9472042 24.8798364,21.6291518 24.5404553,20.5649215 L24.5404553,20.5649215 Z" id="Shape" fill="#FF0066" sketch:type="MSShapeGroup"></path>
    </g>
</svg>

<svg width="25" height="25" viewBox="0 0 25 25" xmlns="http://www.w3.org/2000/svg"><title>Slice 1</title><path d="M24.54 20.565c-.33-1.025-.928-2.06-1.81-2.662-1.698-1.166-3.676-1.789-5.589-2.455-.461-.168-.93-.35-1.352-.61-.376-.231-.517-.706-.605-1.123a5.739 5.739 0 0 1-.074-.67c1.387-1.965 2.307-5.17 2.307-7.8 0-4.102-2.24-5.245-5-5.245-2.762 0-5 1.142-5 5.244 0 2.723.986 6.063 2.456 8.003a5.398 5.398 0 0 1-.057.459c-.088.417-.23.883-.605 1.115-.423.26-.891.424-1.353.592-1.912.666-3.89 1.253-5.588 2.42-.883.602-1.48 1.707-1.81 2.732-.34 1.064-.479 2.382-.458 3.45H24.998c.021-1.068-.118-2.386-.458-3.45z" fill="#F06" fill-rule="evenodd"/></svg>
